X:1
T:What Would We Do Without the Clouds?
T:Alfred Henry Ackley, 1922
T:What Would We Do Without the Clouds?
T:Public Domain
T:Public Domain
T:Public Domain
C:Alfred Henry Ackley, 1922
Z:Public Domain
%%score ( 1 2 ) ( 3 4 )
L:1/8
M:4/4
K:F
V:1 treble 
V:2 treble 
V:3 bass 
V:4 bass 
V:1
 [A,C]3 [A,^C] [B,D]2 [DF]2 | [CE]2 [Cc]2 [FA]4 | [Fc]3 [Fd] [Fc][FA][FG]F | [FA]2 [FG]2 [EG]4 | %4
w: 1.~God is good, He|sends the rain;|For His glo- ry, we should|com- plain; What|
w: 2.~Ver- dant mea- dows,|fruits and flow’rs,|Ga- ther beau- ty from the|ing show’rs; Clouds|
w: 3.~Cloud- less sky makes|bar- ren land;|Parched and thirst- y is the|ert sand; So|
 [A,C]3 [A,^C] [B,D]2 [DF]2 | [CE]2 [Cc]2 (F2 ^D2) | [EG][EA][E=B][Ec] [Ed]2 [FG]2 | %7
w: He sends is al-|ways best, Storm- *|clouds and all the rest. *|
w: are sail- boats from|a- bove, La- *|with the gifts of love. What|
w: would life be bar-|ren, too, If *|were no clouds for you. *|
 (E2 B2 A2 G2) ||"^Refrain" (3C[CD][CE] [CF]>[CG] [FA]>[F^G] [FA]>[Fc] | [^FB]2 [FA]2 D4 | %10
w: |||
w: would * * *|do with- out the clouds? The clouds bring rain,|ter- ing show’rs|
w: |||
 (3C[CD][C^D] [CE]>[=DF] [EG]>[E^F] [EG]>[Ed] | [Ec]2 [GB]2 [FA]4 | %12
w: ||
w: bless- ing o- ver hill and plain, Bring- ing|us the har-|
w: ||
 (3C[CD][CE] [CF]>[CG] [FA]>[F^G] [FA]>[Fc] | [^FB]2 [FA]2 (D2 G2) | %14
w: ||
w: vest of the gold- en grain; What would we|with- out the *|
w: ||
 (3[Gd][G^c][Gd] [^Ge]>[Gd] [A=c]>[Ad] [^FA]>[FA] | .[FA]2 (.E.C) .[CF]4 |] %16
w: ||
w: The clouds bring rain. * * * * *||
w: ||
V:2
 x8 | x8 | x7 F | x8 | x8 | x4 A4 | x8 | c8 || C x7 | x4 D4 | C x7 | x8 | C x7 | x4 d4 | x8 | %15
w: ||not|||y||||||||||
w: ||fall-|||den||we|Scat-|of|to||do|clouds?||
w: ||des-|||there||||||||||
 x2 G2 x4 |] %16
w: |
w: |
w: |
V:3
 F,3 F, [B,,F,]2 [B,,B,]2 | [C,B,]2 [C,B,]2 [F,C]4 | [F,A,]3 [F,B,] [F,A,][F,C][F,B,][F,A,] | %3
 [D,=B,]2 [G,B,]2 [C,C]4 | F,3 F, [B,,F,]2 [B,,B,]2 | [C,B,]2 [C,B,]2 (F,2 ^F,2) | %6
 [G,C][G,C][G,C][G,C] [G,=B,]2 [G,B,]2 | (C2 D2 C2 B,2) || %8
 (3[F,A,][F,A,][F,A,] [F,A,]>[F,B,] [F,C]>[F,=B,] [F,C]>[F,A,] | [D,D]2 [D,C]2 [G,B,]4 | %10
 (3[C,E,][C,F,][C,^G,] [C,G,]>[C,G,] [C,C]>[C,C] [C,C]>[C,C] | [C,G,]2 [C,C]2 [F,C]4 | %12
 (3[F,A,][F,A,][F,A,] [F,A,]>[F,B,] [F,C]>[F,=B,] [F,C]>[F,A,] | [D,D]2 [D,C]2 [G,B,]4 | %14
 (3[B,F][B,F][B,F] [=B,E]>[B,F] [CF]>[CF] [D,D]>[D,C] | .[G,=B,]2 .[C,_B,]2 .[F,,F,A,]4 |] %16
V:4
 F,3 F, x4 | x8 | x8 | x8 | F,3 F, x4 | x4 C4 | x8 | C,8 || x8 | x8 | x8 | x8 | x8 | x8 | x8 | %15
 x8 |] %16

